X:150
T:Countess of Cassillis
R:Reel
B:The Athole Collection
M:C|
L:1/8
K:A
F|ECA,C E2EF|ABcA BB,B,F|ECA,C E2EF|EFAB cAA:|
e|AacA eAA=g|fde=c B=GGB|AacA eAAa|f/g/a ef cAAe|
AacA eAA=g|fdec dBBd|cAGA FAEd|c/d/e f/g/a cAA||

